packages/icons/src/__generated__/nav/svg/nav-proProduct-16-inactive.svg

<svg xmlns="http://www.w3.org/2000/svg" fill="#1652F0" viewBox="0 0 16 16"><path d="M10.989.995h-6v3.75h-4v6.5h4v3.75h6v-3.75h4v-6.5h-4V.995Zm0 5.35h2.4v3.3h-2.4v-3.3Zm-6 3.3h-2.4v-3.3h2.4v3.3Zm4.4 3.75h-2.8v-10.8h2.8v10.8Z"/></svg>

<svg xmlns="http://www.w3.org/2000/svg" fill="#1652F0" viewBox="0 0 16 16"><path d="M11 1H5v3.75H1v6.5h4V15h6v-3.75h4v-6.5h-4V1Zm0 5.35h2.4v3.3H11v-3.3Zm-6 3.3H2.6v-3.3H5v3.3Zm4.4 3.75H6.6V2.6h2.8v10.8Z"/></svg>
